X:350
T:
R:polska
S:Efter skomakaren Pucksson, Klintehamn, m. fl.
O:Gotland, Klintehamn
M:3/4
L:1/16
K:D
ABA^G A2d2f2d2|cdef g4 e4|ABA^G A2d2f2d2|efed cdcB A4|ABA^G A2d2f2d2|cdef g4 e4|fgaf d2f2 B2g2|
fedc e4 d4::ABcd e2e2 f2f2|g2g2 f2f2 e4|ABcd e2e2 f2f2|efgf edcB A4|ABA^G A2d2 f2d2|
cdef g4 e4|fgaf d2f2 B2g2|fedc e4 d4:|

